flaticon/user-interface/browser-56.svg

<svg xmlns="http://www.w3.org/2000/svg" width="32" height="32" viewBox="0 0 24 24">
    <path d="M22 6.800781L18 6.800781 18 22 22 22zM19.199219 21.199219C19.199219 20.980469 19.019531 20.800781 18.800781 20.800781L18.800781 19.199219C19.019531 19.199219 19.199219 19.019531 19.199219 18.800781 19.199219 18.578125 19.019531 18.398438 18.800781 18.398438L18.800781 16.800781C19.019531 16.800781 19.199219 16.621094 19.199219 16.398438 19.199219 16.179688 19.019531 16 18.800781 16L18.800781 14.398438C19.019531 14.398438 19.199219 14.222656 19.199219 14 19.199219 13.777344 19.019531 13.601562 18.800781 13.601562L18.800781 12C19.019531 12 19.199219 11.820312 19.199219 11.601562 19.199219 11.378906 19.019531 11.199219 18.800781 11.199219L18.800781 9.601562C19.019531 9.601562 19.199219 9.421875 19.199219 9.199219 19.199219 8.980469 19.019531 8.800781 18.800781 8.800781L18.800781 7.601562 21.199219 7.601562 21.199219 8.800781C20.980469 8.800781 20.800781 8.980469 20.800781 9.199219 20.800781 9.421875 20.980469 9.601562 21.199219 9.601562L21.199219 11.199219C20.980469 11.199219 20.800781 11.378906 20.800781 11.601562 20.800781 11.820312 20.980469 12 21.199219 12L21.199219 13.601562C20.980469 13.601562 20.800781 13.777344 20.800781 14 20.800781 14.222656 20.980469 14.398438 21.199219 14.398438L21.199219 16C20.980469 16 20.800781 16.179688 20.800781 16.398438 20.800781 16.621094 20.980469 16.800781 21.199219 16.800781L21.199219 18.398438C20.980469 18.398438 20.800781 18.578125 20.800781 18.800781 20.800781 19.019531 20.980469 19.199219 21.199219 19.199219L21.199219 20.800781C20.980469 20.800781 20.800781 20.980469 20.800781 21.199219zM16.800781 22L16.800781 6.800781 2 6.800781 2 22zM2.800781 7.601562L16 7.601562 16 21.199219 2.800781 21.199219zM2.800781 1.199219C1.917969 1.199219 1.199219 1.917969 1.199219 2.800781 1.199219 3.683594 1.917969 4.398438 2.800781 4.398438 3.683594 4.398438 4.398438 3.683594 4.398438 2.800781 4.398438 1.917969 3.683594 1.199219 2.800781 1.199219zM2.800781 3.601562C2.359375 3.601562 2 3.242188 2 2.800781 2 2.359375 2.359375 2 2.800781 2 3.242188 2 3.601562 2.359375 3.601562 2.800781 3.601562 3.242188 3.242188 3.601562 2.800781 3.601562zM6.398438 1.199219C5.519531 1.199219 4.800781 1.917969 4.800781 2.800781 4.800781 3.683594 5.519531 4.398438 6.398438 4.398438 7.28125 4.398438 8 3.683594 8 2.800781 8 1.917969 7.28125 1.199219 6.398438 1.199219zM6.398438 3.601562C5.957031 3.601562 5.601562 3.242188 5.601562 2.800781 5.601562 2.359375 5.957031 2 6.398438 2 6.839844 2 7.199219 2.359375 7.199219 2.800781 7.199219 3.242188 6.839844 3.601562 6.398438 3.601562zM10 1.199219C9.117188 1.199219 8.398438 1.917969 8.398438 2.800781 8.398438 3.683594 9.117188 4.398438 10 4.398438 10.882812 4.398438 11.601562 3.683594 11.601562 2.800781 11.601562 1.917969 10.882812 1.199219 10 1.199219zM10 3.601562C9.558594 3.601562 9.199219 3.242188 9.199219 2.800781 9.199219 2.359375 9.558594 2 10 2 10.441406 2 10.800781 2.359375 10.800781 2.800781 10.800781 3.242188 10.441406 3.601562 10 3.601562zM10 3.601562"/>
    <path d="M 0 0 L 0 24 L 24 24 L 24 0 Z M 0.800781 0.800781 L 23.199219 0.800781 L 23.199219 4.800781 L 0.800781 4.800781 Z M 23.199219 23.199219 L 0.800781 23.199219 L 0.800781 5.601562 L 23.199219 5.601562 Z M 23.199219 23.199219"/>
    <path d="M20.398438 8C20.398438 8.222656 20.222656 8.398438 20 8.398438 19.777344 8.398438 19.601562 8.222656 19.601562 8 19.601562 7.777344 19.777344 7.601562 20 7.601562 20.222656 7.601562 20.398438 7.777344 20.398438 8zM20.398438 10.398438C20.398438 10.621094 20.222656 10.800781 20 10.800781 19.777344 10.800781 19.601562 10.621094 19.601562 10.398438 19.601562 10.179688 19.777344 10 20 10 20.222656 10 20.398438 10.179688 20.398438 10.398438zM20.398438 12.800781C20.398438 13.019531 20.222656 13.199219 20 13.199219 19.777344 13.199219 19.601562 13.019531 19.601562 12.800781 19.601562 12.578125 19.777344 12.398438 20 12.398438 20.222656 12.398438 20.398438 12.578125 20.398438 12.800781zM20.398438 15.199219C20.398438 15.421875 20.222656 15.601562 20 15.601562 19.777344 15.601562 19.601562 15.421875 19.601562 15.199219 19.601562 14.980469 19.777344 14.800781 20 14.800781 20.222656 14.800781 20.398438 14.980469 20.398438 15.199219zM20.398438 17.601562C20.398438 17.820312 20.222656 18 20 18 19.777344 18 19.601562 17.820312 19.601562 17.601562 19.601562 17.378906 19.777344 17.199219 20 17.199219 20.222656 17.199219 20.398438 17.378906 20.398438 17.601562zM20.398438 20C20.398438 20.222656 20.222656 20.398438 20 20.398438 19.777344 20.398438 19.601562 20.222656 19.601562 20 19.601562 19.777344 19.777344 19.601562 20 19.601562 20.222656 19.601562 20.398438 19.777344 20.398438 20zM20.398438 20"/>
</svg>

<svg xmlns="http://www.w3.org/2000/svg" width="32" height="32" viewBox="0 0 24 24">
    <path d="M22 6.8h-4V22h4zm-2.8 14.4a.4.4 0 0 0-.4-.4v-1.6a.4.4 0 0 0 0-.802v-1.597a.401.401 0 0 0 0-.801v-1.602a.398.398 0 1 0 0-.796V12a.4.4 0 0 0 0-.8V9.601a.401.401 0 0 0 0-.801V7.6h2.4v1.2a.4.4 0 0 0 0 .8V11.2a.401.401 0 0 0 0 .801v1.602a.398.398 0 1 0 0 .796V16a.4.4 0 0 0 0 .8v1.598a.401.401 0 0 0 0 .801v1.602a.4.4 0 0 0-.4.398zm0 0M16.8 22V6.8H2V22zM2.8 7.602H16v13.597H2.8zm0 0M2.8 1.2c-.882 0-1.6.718-1.6 1.6a1.6 1.6 0 1 0 1.6-1.6zm0 2.402A.802.802 0 0 1 2.8 2a.802.802 0 0 1 0 1.602zm0 0M6.398 1.2A1.6 1.6 0 1 0 8 2.801c0-.884-.719-1.603-1.602-1.603zm0 2.402a.799.799 0 0 1-.796-.801.799.799 0 1 1 1.597 0c0 .441-.36.8-.8.8zm0 0M10 1.2c-.883 0-1.602.718-1.602 1.6A1.6 1.6 0 0 0 10 4.399a1.6 1.6 0 0 0 1.602-1.597c0-.883-.72-1.602-1.602-1.602zm0 2.402A.802.802 0 0 1 10 2a.802.802 0 0 1 0 1.602zm0 0"/>
    <path d="M0 0v24h24V0zm.8.8h22.4v4H.8zm22.4 22.4H.8V5.601h22.4zm0 0"/>
    <path d="M20.398 8a.395.395 0 0 1-.398.398.395.395 0 0 1-.398-.398c0-.223.175-.398.398-.398.223 0 .398.175.398.398zm0 0M20.398 10.398a.398.398 0 1 1-.796 0 .398.398 0 1 1 .796 0zm0 0M20.398 12.8a.398.398 0 1 1-.796 0 .398.398 0 1 1 .796 0zm0 0M20.398 15.2a.398.398 0 1 1-.796 0 .398.398 0 1 1 .796 0zm0 0M20.398 17.602a.398.398 0 1 1-.796 0 .398.398 0 1 1 .796 0zm0 0M20.398 20a.395.395 0 0 1-.398.398.395.395 0 0 1-.398-.398c0-.223.175-.398.398-.398.223 0 .398.175.398.398zm0 0"/>
</svg>
